<?xml version="1.0" encoding="UTF-8"?>
<map version="1.10" tiledversion="1.11.2" orientation="orthogonal" renderorder="right-down" width="30" height="20" tilewidth="16" tileheight="16" infinite="1" nextlayerid="4" nextobjectid="8">
 <editorsettings>
  <export target="CakeQuestMap.json" format="json"/>
 </editorsettings>
 <tileset firstgid="1" name="CakeQuestSet" tilewidth="16" tileheight="16" tilecount="10" columns="9">
  <properties>
   <property name="collides" value=""/>
  </properties>
  <image source="TilesetCakeQuest.png" trans="00c0de" width="144" height="16"/>
  <tile id="0">
   <properties>
    <property name="collides" type="bool" value="true"/>
   </properties>
  </tile>
  <tile id="1">
   <properties>
    <property name="collides" type="bool" value="true"/>
   </properties>
  </tile>
  <tile id="2">
   <properties>
    <property name="collides" type="bool" value="true"/>
   </properties>
  </tile>
 </tileset>
 <layer id="3" name="Background" width="30" height="20">
  <data encoding="csv">
   <chunk x="32" y="-16" width="16" height="16">
0,0,0,0,0,0,0,0,0,0,0,0,0,0,0,0,
0,0,0,0,0,0,0,0,0,0,0,0,0,0,0,0,
0,0,0,0,0,0,0,0,0,0,0,0,0,0,0,0,
0,0,0,0,0,0,0,0,0,0,0,0,0,0,0,0,
0,0,0,0,0,0,0,0,0,0,0,0,0,0,0,0,
0,0,0,0,0,0,0,0,0,0,0,0,0,0,0,0,
0,0,0,0,0,0,0,0,0,0,0,0,0,0,0,0,
0,0,0,0,0,0,0,0,0,0,0,0,0,0,0,0,
0,0,0,0,0,0,0,0,0,0,0,0,0,0,0,0,
0,0,0,0,0,0,0,0,0,0,0,0,0,0,0,0,
0,0,0,0,0,0,0,0,0,0,0,0,0,0,0,0,
7,8,8,8,8,8,8,8,8,8,8,8,8,8,8,9,
7,8,8,8,8,8,8,8,8,8,8,8,8,8,8,9,
7,8,8,8,8,8,8,8,8,8,8,8,8,8,8,9,
7,8,8,8,8,8,8,8,8,8,8,8,8,8,8,9,
7,8,8,8,8,8,8,8,8,8,8,8,8,8,8,9
</chunk>
   <chunk x="32" y="0" width="16" height="16">
7,8,8,8,8,8,8,8,8,8,8,8,8,8,8,9,
7,8,8,8,8,8,8,8,8,8,8,8,8,8,8,9,
7,8,8,8,8,8,8,8,8,8,8,8,8,8,8,9,
7,8,8,8,8,8,8,8,8,8,8,8,8,8,8,9,
7,8,8,8,8,8,8,8,8,8,8,8,8,8,8,9,
7,8,8,8,8,8,8,8,8,8,8,8,8,8,8,9,
7,8,8,8,8,8,8,8,8,8,8,8,8,8,8,9,
7,8,8,8,8,8,8,8,8,8,8,8,8,8,8,9,
7,8,8,8,8,8,8,8,8,8,8,8,8,8,8,9,
7,8,8,8,8,8,8,8,8,8,8,8,8,8,8,9,
7,8,8,8,8,8,8,8,8,8,8,8,8,8,8,9,
7,8,8,8,8,8,8,8,8,8,8,8,8,8,8,9,
7,8,8,8,8,8,8,8,8,8,8,8,8,8,8,9,
7,8,8,8,8,8,8,8,8,8,8,8,8,8,8,9,
7,8,8,8,8,8,8,8,8,8,8,8,8,8,8,9,
4,5,5,5,5,5,5,5,5,5,5,5,5,5,5,6
</chunk>
  </data>
 </layer>
 <layer id="1" name="Ground" width="30" height="20">
  <data encoding="csv">
   <chunk x="32" y="-16" width="16" height="16">
0,0,0,0,0,0,0,0,0,0,0,0,0,0,0,0,
0,0,0,0,0,0,0,0,0,0,0,0,0,0,0,0,
0,0,0,0,0,0,0,0,0,0,0,0,0,0,0,0,
0,0,0,0,0,0,0,0,0,0,0,0,0,0,0,0,
0,0,0,0,0,0,0,0,0,0,0,0,0,0,0,0,
0,0,0,0,0,0,0,0,0,0,0,0,0,0,0,0,
0,0,0,0,0,0,0,0,0,0,0,0,0,0,0,0,
0,0,0,0,0,0,0,0,0,0,0,0,0,0,0,0,
0,0,0,0,0,0,0,0,0,0,0,0,0,0,0,0,
0,0,0,0,0,0,0,0,0,0,0,0,0,0,0,0,
1,2,2,2,2,2,2,2,2,2,2,2,2,2,2,3,
0,0,0,0,0,0,0,0,0,0,0,0,0,0,0,0,
0,0,0,1,2,3,0,0,0,0,0,0,0,0,0,0,
0,0,0,0,0,0,0,0,0,0,0,0,0,0,0,0,
0,0,0,0,0,0,0,0,0,0,0,0,0,0,0,0,
0,0,0,0,0,0,0,0,1,2,2,2,2,2,3,0
</chunk>
   <chunk x="0" y="0" width="16" height="16">
0,0,0,0,0,0,0,0,0,0,0,0,0,0,0,0,
0,0,0,0,0,0,0,0,0,0,0,0,0,0,0,0,
0,0,0,0,0,0,0,0,0,0,0,0,0,0,0,0,
0,0,0,0,0,0,0,0,0,0,0,0,0,0,0,0,
0,0,0,0,0,0,0,0,0,0,0,0,0,0,0,0,
0,0,0,0,0,0,0,0,0,0,0,0,0,0,0,0,
0,0,0,0,0,0,0,0,0,0,0,0,0,0,0,0,
0,0,0,0,0,0,0,0,0,0,0,0,0,0,0,0,
0,0,0,0,0,0,0,0,0,0,0,0,0,0,0,0,
0,0,0,0,0,0,0,0,0,0,0,0,0,0,0,1,
1,2,2,2,2,2,2,2,2,2,2,2,3,0,0,4,
4,5,5,5,5,5,5,5,5,5,5,5,6,0,0,0,
0,0,0,0,0,0,0,0,0,0,0,0,0,0,0,0,
0,0,0,0,0,0,0,0,0,0,0,0,0,0,0,0,
0,0,0,0,0,0,0,0,0,0,0,0,0,0,0,0,
0,0,0,0,0,0,0,0,0,0,0,0,0,0,0,0
</chunk>
   <chunk x="16" y="0" width="16" height="16">
0,0,0,0,0,0,0,0,0,0,0,0,0,0,0,0,
0,0,0,0,0,0,0,0,0,0,0,0,0,0,0,0,
0,0,0,0,0,0,0,0,0,0,0,0,0,0,0,0,
0,0,0,0,0,0,0,0,0,0,0,0,0,0,0,0,
0,0,0,0,0,0,0,0,0,0,0,0,0,0,0,0,
0,0,0,0,0,0,0,0,0,0,0,0,0,0,0,0,
0,0,0,0,0,0,0,0,0,0,0,0,0,0,0,0,
0,0,0,0,0,0,0,0,0,0,0,0,0,0,0,0,
0,0,0,0,0,0,0,0,0,0,0,0,0,0,0,0,
2,3,0,0,0,0,0,0,0,0,0,0,0,0,0,0,
5,6,0,0,0,0,0,0,0,0,0,0,0,0,1,2,
0,0,0,0,1,2,2,2,2,2,3,0,0,0,4,5,
0,0,0,0,4,5,5,5,5,5,6,0,0,0,0,0,
0,0,0,0,0,0,0,0,0,0,0,0,0,0,0,0,
0,0,0,0,0,0,0,0,0,0,0,0,0,0,0,0,
0,0,0,0,0,0,0,0,0,0,0,0,0,0,0,0
</chunk>
   <chunk x="32" y="0" width="16" height="16">
0,0,0,0,0,0,0,0,0,0,0,0,0,0,0,0,
0,0,1,2,3,0,0,0,0,0,0,0,0,0,0,0,
0,0,0,0,0,0,0,0,0,0,0,0,0,0,0,0,
0,0,0,0,0,0,0,0,0,0,0,0,0,0,0,0,
0,0,0,0,0,0,0,0,0,0,0,0,0,0,0,0,
0,0,0,0,0,1,2,3,0,0,0,0,0,0,0,0,
0,0,0,0,0,0,0,0,0,0,0,0,0,0,0,0,
0,0,0,0,0,0,0,0,0,0,0,0,0,0,0,0,
0,0,0,0,0,0,0,0,0,0,1,2,2,3,0,0,
0,0,0,0,0,0,0,0,0,0,0,0,0,0,0,0,
3,0,0,0,0,0,0,0,0,0,0,0,0,0,0,0,
6,0,0,0,0,0,0,0,0,0,0,0,0,0,0,0,
0,0,0,0,1,2,3,0,0,0,0,0,0,0,0,0,
0,0,0,0,0,0,0,0,0,0,0,0,0,0,0,0,
0,0,0,0,0,0,0,0,0,0,0,0,0,0,0,0,
0,0,0,0,0,0,0,0,0,0,0,0,0,0,0,0
</chunk>
  </data>
 </layer>
 <objectgroup id="2" name="Objects">
  <object id="1" name="player" x="15.3333" y="136.667">
   <point/>
  </object>
  <object id="2" name="log1" type="Log" x="192.333" y="153">
   <point/>
  </object>
  <object id="3" name="bug1" type="Bug" x="378.667" y="169.333">
   <point/>
  </object>
  <object id="4" name="log2" type="Log" x="738.667" y="-20.6667">
   <point/>
  </object>
  <object id="6" name="bug2" type="Bug" x="638.667" y="-100">
   <point/>
  </object>
  <object id="7" name="cake" x="790" y="-142.667">
   <point/>
  </object>
 </objectgroup>
</map>
